icons/shield.svg

<svg width="24" height="24" viewBox="0 0 24 24" fill="none" xmlns="http://www.w3.org/2000/svg">
<path fill-rule="evenodd" clip-rule="evenodd" d="M11.6489 1.06367C11.8753 0.978776 12.1247 0.978776 12.3511 1.06367L20.3511 4.06367C20.7414 4.21003 21 4.58316 21 5V12C21 15.4464 18.7183 18.2003 16.6585 20.0026C15.6076 20.9221 14.5615 21.6408 13.78 22.1292C13.3882 22.3741 13.0603 22.5627 12.8281 22.6913C12.7119 22.7556 12.6194 22.805 12.5547 22.839C12.5223 22.856 12.4968 22.8692 12.4788 22.8784L12.4573 22.8894L12.4508 22.8926L12.4486 22.8937C12.4483 22.8939 12.4472 22.8944 12 22C11.5528 22.8944 11.5525 22.8943 11.5522 22.8941L11.5492 22.8926L11.5427 22.8894L11.5212 22.8784C11.5032 22.8692 11.4777 22.856 11.4453 22.839C11.3806 22.805 11.2881 22.7556 11.1719 22.6913C10.9397 22.5627 10.6118 22.3741 10.22 22.1292C9.43854 21.6408 8.39238 20.9221 7.3415 20.0026C5.28175 18.2003 3 15.4464 3 12V5C3 4.58316 3.25857 4.21003 3.64888 4.06367L11.6489 1.06367ZM12 22L11.5522 22.8941C11.8337 23.0349 12.1657 23.0352 12.4472 22.8944L12 22ZM12 20.8628C12.1916 20.7541 12.4367 20.6103 12.72 20.4333C13.4385 19.9842 14.3924 19.3279 15.3415 18.4974C17.2817 16.7997 19 14.5536 19 12V5.693L12 3.068L5 5.693V12C5 14.5536 6.71825 16.7997 8.6585 18.4974C9.60762 19.3279 10.5615 19.9842 11.28 20.4333C11.5633 20.6103 11.8084 20.7541 12 20.8628Z" fill="black"/>
</svg>

<svg
  width="24"
  height="24"
  viewBox="0 0 24 24"
  xmlns="http://www.w3.org/2000/svg"
>
  <path
    fill-rule="evenodd"
    clip-rule="evenodd"
    d="M11.649 1.064a1 1 0 0 1 .702 0l8 3A1 1 0 0 1 21 5v7c0 3.446-2.282 6.2-4.341 8.003a22.684 22.684 0 0 1-4.104 2.836 8.28 8.28 0 0 1-.076.04l-.022.01-.006.004h-.002s-.002.001-.449-.893l-.448.894-.003-.001-.006-.004-.022-.01a8.28 8.28 0 0 1-.35-.188 22.686 22.686 0 0 1-3.83-2.689C5.281 18.2 3 15.447 3 12V5a1 1 0 0 1 .649-.936l8-3zM12 22l-.448.894c.282.14.614.141.895 0L12 22zm0-1.137a20.69 20.69 0 0 0 3.341-2.365C17.282 16.8 19 14.553 19 12V5.693l-7-2.625-7 2.625V12c0 2.554 1.718 4.8 3.659 6.497A20.692 20.692 0 0 0 12 20.863z"
  />
</svg>
